**kern	**kern
*Ilh	*Irh
*clefF4	*clefG2
*k[]	*k[]
*M2/4	*M2/4
*C:	*C:
*>Theme	*>Theme
=-	=-
4C	4cc
4c	4cc
=	=
4e	4gg
4c	4gg
=	=
4f	4aa
4c	4aa
=	=
4e	4gg
4c	4gg
=	=
4d	4ff
4B	4ff
=	=
4c	4ee
4A	4ee
=	=
4F	4dd
4G	(8.ddL
.	16eeJk
=	=
2C	2cc)
=:|!|:	=:|!:
4e	4gg
4G	4gg
=	=
4d	4ff
4G	4ff
=	=
4c	4ee
4G	4ee
=	=
4B	4dd
4G	4dd
=	=
4e	4gg
4G	4gg
=	=
4d	4ff
4G	4ff
=	=
4c	(4ee
.	16ffQ
.	16eeQ
.	16ddQ
(8.cL	8.eeL
16dJk	16ffJk
=	=
*^	*
*	*	*
4c	2G	4ee
4B)	.	4dd)
*v	*v	*
*	*
=	=
4C	4cc
4c	4cc
=	=
4e	4gg
4c	4gg
=	=
4f	4aa
4c	4aa
=	=
4e	4gg
4c	4gg
=	=
4d	4ff
4B	4ff
=	=
4c	4ee
4A	4ee
=	=
4F	(4dd
.	16eeQ
.	16ddQ
.	16ccQ
4G	8.ddL
.	16eeJk
=	=
2C	2cc)
*-	*-
